images/50210009.svg

<?xml version="1.0" encoding="UTF-8"?>
<svg xmlns="http://www.w3.org/2000/svg" xmlns:xlink="http://www.w3.org/1999/xlink" width="300pt" height="300pt" viewBox="0 0 300 300" version="1.1">
<defs>
<g>
<symbol overflow="visible" id="glyph0-0">
<path style="stroke:none;" d="M 0.796875 2.828125 L 0.796875 -11.28125 L 8.796875 -11.28125 L 8.796875 2.828125 Z M 1.703125 1.9375 L 7.90625 1.9375 L 7.90625 -10.390625 L 1.703125 -10.390625 Z M 1.703125 1.9375 "/>
</symbol>
<symbol overflow="visible" id="glyph0-1">
<path style="stroke:none;" d="M 1.578125 -11.671875 L 8.28125 -11.671875 L 8.28125 -10.34375 L 3.15625 -10.34375 L 3.15625 -6.90625 L 7.78125 -6.90625 L 7.78125 -5.578125 L 3.15625 -5.578125 L 3.15625 0 L 1.578125 0 Z M 1.578125 -11.671875 "/>
</symbol>
<symbol overflow="visible" id="glyph0-2">
<path style="stroke:none;" d="M 1.578125 -11.671875 L 3.703125 -11.671875 L 8.875 -1.90625 L 8.875 -11.671875 L 10.40625 -11.671875 L 10.40625 0 L 8.28125 0 L 3.109375 -9.765625 L 3.109375 0 L 1.578125 0 Z M 1.578125 -11.671875 "/>
</symbol>
<symbol overflow="visible" id="glyph0-3">
<path style="stroke:none;" d="M 1.578125 -11.671875 L 3.15625 -11.671875 L 3.15625 -6.890625 L 8.890625 -6.890625 L 8.890625 -11.671875 L 10.46875 -11.671875 L 10.46875 0 L 8.890625 0 L 8.890625 -5.5625 L 3.15625 -5.5625 L 3.15625 0 L 1.578125 0 Z M 1.578125 -11.671875 "/>
</symbol>
</g>
</defs>
<g id="surface23649">
<rect x="0" y="0" width="300" height="300" style="fill:rgb(100%,100%,100%);fill-opacity:1;stroke:none;"/>
<path style="fill:none;stroke-width:1.2;stroke-linecap:butt;stroke-linejoin:miter;stroke:rgb(20%,80%,80%);stroke-opacity:1;stroke-miterlimit:10;" d="M 39.386719 205.929688 L 54.769531 194.5625 "/>
<path style="fill:none;stroke-width:1.2;stroke-linecap:butt;stroke-linejoin:miter;stroke:rgb(0%,0%,0%);stroke-opacity:1;stroke-miterlimit:10;" d="M 54.769531 194.5625 L 70.148438 183.199219 "/>
<path style=" stroke:none;fill-rule:nonzero;fill:rgb(100%,100%,100%);fill-opacity:1;" d="M 29.386719 196.429688 L 39.386719 196.429688 L 39.386719 215.429688 L 29.386719 215.429688 Z M 29.386719 196.429688 "/>
<g style="fill:rgb(20%,80%,80%);fill-opacity:1;">
  <use xlink:href="#glyph0-1" x="29.386719" y="211.28125"/>
</g>
<path style="fill:none;stroke-width:1.2;stroke-linecap:butt;stroke-linejoin:miter;stroke:rgb(0%,0%,0%);stroke-opacity:1;stroke-miterlimit:10;" d="M 70.148438 183.199219 L 65.84375 145.191406 "/>
<path style="fill:none;stroke-width:1.2;stroke-linecap:butt;stroke-linejoin:miter;stroke:rgb(0%,0%,0%);stroke-opacity:1;stroke-miterlimit:10;" d="M 78.660156 178.382812 L 75.214844 147.976562 "/>
<path style="fill:none;stroke-width:1.2;stroke-linecap:butt;stroke-linejoin:miter;stroke:rgb(0%,0%,0%);stroke-opacity:1;stroke-miterlimit:10;" d="M 105.21875 198.472656 L 70.148438 183.199219 "/>
<path style="fill:none;stroke-width:1.2;stroke-linecap:butt;stroke-linejoin:miter;stroke:rgb(0%,0%,0%);stroke-opacity:1;stroke-miterlimit:10;" d="M 65.84375 145.191406 L 96.601562 122.457031 "/>
<path style="fill:none;stroke-width:1.2;stroke-linecap:butt;stroke-linejoin:miter;stroke:rgb(0%,0%,0%);stroke-opacity:1;stroke-miterlimit:10;" d="M 96.601562 122.457031 L 131.671875 137.730469 "/>
<path style="fill:none;stroke-width:1.2;stroke-linecap:butt;stroke-linejoin:miter;stroke:rgb(0%,0%,0%);stroke-opacity:1;stroke-miterlimit:10;" d="M 96.515625 132.238281 L 124.570312 144.457031 "/>
<path style="fill:none;stroke-width:1.2;stroke-linecap:butt;stroke-linejoin:miter;stroke:rgb(0%,0%,0%);stroke-opacity:1;stroke-miterlimit:10;" d="M 131.671875 137.730469 L 135.976562 175.738281 "/>
<path style="fill:none;stroke-width:1.2;stroke-linecap:butt;stroke-linejoin:miter;stroke:rgb(0%,0%,0%);stroke-opacity:1;stroke-miterlimit:10;" d="M 131.671875 137.730469 L 162.433594 115 "/>
<path style="fill:none;stroke-width:1.2;stroke-linecap:butt;stroke-linejoin:miter;stroke:rgb(0%,0%,0%);stroke-opacity:1;stroke-miterlimit:10;" d="M 135.976562 175.738281 L 105.21875 198.472656 "/>
<path style="fill:none;stroke-width:1.2;stroke-linecap:butt;stroke-linejoin:miter;stroke:rgb(0%,0%,0%);stroke-opacity:1;stroke-miterlimit:10;" d="M 127.554688 170.773438 L 102.945312 188.960938 "/>
<path style="fill:none;stroke-width:1.2;stroke-linecap:butt;stroke-linejoin:miter;stroke:rgb(0%,0%,0%);stroke-opacity:1;stroke-miterlimit:10;" d="M 162.433594 115 L 162.277344 95.875 "/>
<path style="fill:none;stroke-width:1.2;stroke-linecap:butt;stroke-linejoin:miter;stroke:rgb(0%,0%,100%);stroke-opacity:1;stroke-miterlimit:10;" d="M 162.277344 95.875 L 162.121094 76.75 "/>
<path style="fill:none;stroke-width:1.2;stroke-linecap:butt;stroke-linejoin:miter;stroke:rgb(0%,0%,0%);stroke-opacity:1;stroke-miterlimit:10;" d="M 198.90625 126.523438 L 162.433594 115 "/>
<path style="fill:none;stroke-width:1.2;stroke-linecap:butt;stroke-linejoin:miter;stroke:rgb(0%,0%,0%);stroke-opacity:1;stroke-miterlimit:10;" d="M 197.96875 116.789062 L 168.792969 107.570312 "/>
<path style="fill:none;stroke-width:1.2;stroke-linecap:butt;stroke-linejoin:miter;stroke:rgb(0%,0%,100%);stroke-opacity:1;stroke-miterlimit:10;" d="M 162.121094 76.75 L 198.402344 64.636719 "/>
<path style=" stroke:none;fill-rule:nonzero;fill:rgb(100%,100%,100%);fill-opacity:1;" d="M 150.121094 67.25 L 174.121094 67.25 L 174.121094 86.25 L 150.121094 86.25 Z M 150.121094 67.25 "/>
<g style="fill:rgb(0%,0%,100%);fill-opacity:1;">
  <use xlink:href="#glyph0-2" x="150.121094" y="82.101562"/>
  <use xlink:href="#glyph0-3" x="162.089844" y="82.101562"/>
</g>
<path style="fill:none;stroke-width:1.2;stroke-linecap:butt;stroke-linejoin:miter;stroke:rgb(0%,0%,100%);stroke-opacity:1;stroke-miterlimit:10;" d="M 198.402344 64.636719 L 221.136719 95.394531 "/>
<path style="fill:none;stroke-width:1.2;stroke-linecap:butt;stroke-linejoin:miter;stroke:rgb(0%,0%,100%);stroke-opacity:1;stroke-miterlimit:10;" d="M 193.4375 73.058594 L 211.625 97.667969 "/>
<path style=" stroke:none;fill-rule:nonzero;fill:rgb(100%,100%,100%);fill-opacity:1;" d="M 192.402344 55.136719 L 204.402344 55.136719 L 204.402344 74.136719 L 192.402344 74.136719 Z M 192.402344 55.136719 "/>
<g style="fill:rgb(0%,0%,100%);fill-opacity:1;">
  <use xlink:href="#glyph0-2" x="192.402344" y="69.988281"/>
</g>
<path style="fill:none;stroke-width:1.2;stroke-linecap:butt;stroke-linejoin:miter;stroke:rgb(0%,0%,100%);stroke-opacity:1;stroke-miterlimit:10;" d="M 221.136719 95.394531 L 210.019531 110.960938 "/>
<path style="fill:none;stroke-width:1.2;stroke-linecap:butt;stroke-linejoin:miter;stroke:rgb(0%,0%,0%);stroke-opacity:1;stroke-miterlimit:10;" d="M 210.019531 110.960938 L 198.90625 126.523438 "/>
<path style=" stroke:none;fill-rule:nonzero;fill:rgb(100%,100%,100%);fill-opacity:1;" d="M 215.136719 85.894531 L 227.136719 85.894531 L 227.136719 104.894531 L 215.136719 104.894531 Z M 215.136719 85.894531 "/>
<g style="fill:rgb(0%,0%,100%);fill-opacity:1;">
  <use xlink:href="#glyph0-2" x="215.136719" y="100.746094"/>
</g>
<path style="fill:none;stroke-width:1.2;stroke-linecap:butt;stroke-linejoin:miter;stroke:rgb(0%,0%,0%);stroke-opacity:1;stroke-miterlimit:10;" d="M 198.90625 126.523438 L 211.019531 162.804688 "/>
<path style="fill:none;stroke-width:1.2;stroke-linecap:butt;stroke-linejoin:miter;stroke:rgb(0%,0%,0%);stroke-opacity:1;stroke-miterlimit:10;" d="M 211.019531 162.804688 L 185.65625 191.433594 "/>
<path style="fill:none;stroke-width:1.2;stroke-linecap:butt;stroke-linejoin:miter;stroke:rgb(0%,0%,0%);stroke-opacity:1;stroke-miterlimit:10;" d="M 215.222656 171.632812 L 194.929688 194.539062 "/>
<path style="fill:none;stroke-width:1.2;stroke-linecap:butt;stroke-linejoin:miter;stroke:rgb(0%,0%,0%);stroke-opacity:1;stroke-miterlimit:10;" d="M 248.496094 170.453125 L 211.019531 162.804688 "/>
<path style="fill:none;stroke-width:1.2;stroke-linecap:butt;stroke-linejoin:miter;stroke:rgb(0%,0%,0%);stroke-opacity:1;stroke-miterlimit:10;" d="M 185.65625 191.433594 L 197.773438 227.714844 "/>
<path style="fill:none;stroke-width:1.2;stroke-linecap:butt;stroke-linejoin:miter;stroke:rgb(0%,0%,0%);stroke-opacity:1;stroke-miterlimit:10;" d="M 197.773438 227.714844 L 216.511719 231.539062 "/>
<path style="fill:none;stroke-width:1.2;stroke-linecap:butt;stroke-linejoin:miter;stroke:rgb(0%,0%,100%);stroke-opacity:1;stroke-miterlimit:10;" d="M 216.511719 231.539062 L 235.25 235.363281 "/>
<path style="fill:none;stroke-width:1.2;stroke-linecap:butt;stroke-linejoin:miter;stroke:rgb(0%,0%,0%);stroke-opacity:1;stroke-miterlimit:10;" d="M 203.320312 219.664062 L 218.3125 222.722656 "/>
<path style="fill:none;stroke-width:1.2;stroke-linecap:butt;stroke-linejoin:miter;stroke:rgb(0%,0%,100%);stroke-opacity:1;stroke-miterlimit:10;" d="M 218.3125 222.722656 L 233.300781 225.78125 "/>
<path style="fill:none;stroke-width:1.2;stroke-linecap:butt;stroke-linejoin:miter;stroke:rgb(0%,0%,100%);stroke-opacity:1;stroke-miterlimit:10;" d="M 235.25 235.363281 L 247.929688 221.050781 "/>
<path style="fill:none;stroke-width:1.2;stroke-linecap:butt;stroke-linejoin:miter;stroke:rgb(0%,0%,0%);stroke-opacity:1;stroke-miterlimit:10;" d="M 247.929688 221.050781 L 260.613281 206.734375 "/>
<path style=" stroke:none;fill-rule:nonzero;fill:rgb(100%,100%,100%);fill-opacity:1;" d="M 229.25 225.863281 L 241.25 225.863281 L 241.25 244.863281 L 229.25 244.863281 Z M 229.25 225.863281 "/>
<g style="fill:rgb(0%,0%,100%);fill-opacity:1;">
  <use xlink:href="#glyph0-2" x="229.25" y="240.714844"/>
</g>
<path style="fill:none;stroke-width:1.2;stroke-linecap:butt;stroke-linejoin:miter;stroke:rgb(0%,0%,0%);stroke-opacity:1;stroke-miterlimit:10;" d="M 260.613281 206.734375 L 248.496094 170.453125 "/>
<path style="fill:none;stroke-width:1.2;stroke-linecap:butt;stroke-linejoin:miter;stroke:rgb(0%,0%,0%);stroke-opacity:1;stroke-miterlimit:10;" d="M 250.863281 205.957031 L 241.171875 176.929688 "/>
</g>
</svg>

<svg xmlns="http://www.w3.org/2000/svg" xmlns:xlink="http://www.w3.org/1999/xlink" width="300pt" height="300pt" viewBox="0 0 300 300"><defs><symbol overflow="visible"><path d="M.797 2.828v-14.11h8V2.83zm.906-.89h6.203v-12.33H1.703zm0 0"/></symbol><symbol overflow="visible" id="a"><path d="M1.578-11.672H8.28v1.328H3.157v3.438H7.78v1.328H3.157V0H1.578zm0 0"/></symbol><symbol overflow="visible" id="b"><path d="M1.578-11.672h2.125l5.172 9.766v-9.766h1.53V0H8.282L3.11-9.766V0H1.577zm0 0"/></symbol><symbol overflow="visible" id="c"><path d="M1.578-11.672h1.578v4.78H8.89v-4.78h1.58V0H8.89v-5.563H3.157V0H1.578zm0 0"/></symbol></defs><g><path fill="#fff" d="M0 0h300v300H0z"/><path d="M39.387 205.93l15.383-11.368" stroke-width="1.2" stroke="#3cc" stroke-miterlimit="10" fill="none"/><path d="M54.77 194.563L70.148 183.2" stroke-width="1.2" stroke="#000" stroke-miterlimit="10" fill="none"/><path d="M29.387 196.43h10v19h-10zm0 0" fill="#fff"/><use xlink:href="#a" x="29.387" y="211.281" fill="#3cc"/><path d="M70.148 183.2l-4.304-38.01M78.66 178.383l-3.445-30.406M105.22 198.473L70.147 183.2M65.844 145.19l30.758-22.733M96.602 122.457l35.07 15.273M96.516 132.238l28.054 12.22M131.672 137.73l4.305 38.008M131.672 137.73L162.434 115M135.977 175.738l-30.758 22.735M127.555 170.773l-24.61 18.188M162.434 115l-.157-19.125" stroke-width="1.2" stroke="#000" stroke-miterlimit="10" fill="none"/><path d="M162.277 95.875l-.156-19.125" stroke-width="1.2" stroke="#00f" stroke-miterlimit="10" fill="none"/><path d="M198.906 126.523L162.434 115M197.97 116.79l-29.177-9.22" stroke-width="1.2" stroke="#000" stroke-miterlimit="10" fill="none"/><path d="M162.12 76.75l36.282-12.113" stroke-width="1.2" stroke="#00f" stroke-miterlimit="10" fill="none"/><path d="M150.12 67.25h24v19h-24zm0 0" fill="#fff"/><g fill="#00f"><use xlink:href="#b" x="150.121" y="82.102"/><use xlink:href="#c" x="162.09" y="82.102"/></g><path d="M198.402 64.637l22.735 30.758M193.438 73.06l18.187 24.608" stroke-width="1.2" stroke="#00f" stroke-miterlimit="10" fill="none"/><path d="M192.402 55.137h12v19h-12zm0 0" fill="#fff"/><use xlink:href="#b" x="192.402" y="69.988" fill="#00f"/><path d="M221.137 95.395L210.02 110.96" stroke-width="1.2" stroke="#00f" stroke-miterlimit="10" fill="none"/><path d="M210.02 110.96l-11.114 15.563" stroke-width="1.2" stroke="#000" stroke-miterlimit="10" fill="none"/><path d="M215.137 85.895h12v19h-12zm0 0" fill="#fff"/><use xlink:href="#b" x="215.137" y="100.746" fill="#00f"/><path d="M198.906 126.523l12.114 36.282M211.02 162.805l-25.364 28.63M215.223 171.633L194.93 194.54M248.496 170.453l-37.476-7.648M185.656 191.434l12.117 36.28M197.773 227.715l18.74 3.824" stroke-width="1.2" stroke="#000" stroke-miterlimit="10" fill="none"/><path d="M216.512 231.54l18.738 3.823" stroke-width="1.2" stroke="#00f" stroke-miterlimit="10" fill="none"/><path d="M203.32 219.664l14.993 3.06" stroke-width="1.2" stroke="#000" stroke-miterlimit="10" fill="none"/><path d="M218.313 222.723l14.988 3.058M235.25 235.363l12.68-14.312" stroke-width="1.2" stroke="#00f" stroke-miterlimit="10" fill="none"/><path d="M247.93 221.05l12.683-14.316" stroke-width="1.2" stroke="#000" stroke-miterlimit="10" fill="none"/><path d="M229.25 225.863h12v19h-12zm0 0" fill="#fff"/><use xlink:href="#b" x="229.25" y="240.715" fill="#00f"/><path d="M260.613 206.734l-12.117-36.28M250.863 205.957l-9.69-29.027" stroke-width="1.2" stroke="#000" stroke-miterlimit="10" fill="none"/></g></svg>
